svgs/sharp-solid/game-board.svg

<svg xmlns="http://www.w3.org/2000/svg" viewBox="0 0 448 512"><!--! Font Awesome Pro 7.1.0 by @fontawesome - https://fontawesome.com License - https://fontawesome.com/license (Commercial License) Copyright 2025 Fonticons, Inc. --><path fill="currentColor" d="M0 32l448 0 0 448-448 0 0-448zM144 96l0 80 80 0 0-80-80 0zm0 160l0-80-80 0 0 80 80 0zm80 0l-80 0 0 80-80 0 0 80 80 0 0-80 80 0 0 80 80 0 0-80 80 0 0-80-80 0 0-80 80 0 0-80-80 0 0 80-80 0 0 80zm0 0l80 0 0 80-80 0 0-80z"/></svg>

<svg xmlns="http://www.w3.org/2000/svg" viewBox="0 0 448 512"><!--! Font Awesome Pro 6.6.0 by @fontawesome - https://fontawesome.com License - https://fontawesome.com/license (Commercial License) Copyright 2024 Fonticons, Inc. --><path d="M0 32H448V480H0V32zM144 96v80h80V96H144zm0 160V176H64v80h80zm80 0H144v80H64v80h80V336h80v80h80V336h80V256H304V176h80V96H304v80H224v80zm0 0h80v80H224V256z"/></svg>
